packages/larva-svg/src/icons/youtube.svg

<?xml version="1.0" encoding="UTF-8"?>
<svg width="19px" height="14px" viewBox="0 0 19 14" version="1.1" xmlns="http://www.w3.org/2000/svg" xmlns:xlink="http://www.w3.org/1999/xlink">
    <!-- Generator: sketchtool 52.5 (67469) - http://www.bohemiancoding.com/sketch -->
    <title>Youtube Icon</title>
    <g id="Author-Page" stroke="none" stroke-width="1" fill="none" fill-rule="evenodd">
        <g id="Author-Page-/-Desktop-XL" transform="translate(-585.000000, -483.000000)" fill="#000000">
            <g id="About-Author" transform="translate(20.000000, 425.000000)">
                <g id="Social-Icons" transform="translate(212.000000, 56.000000)">
                    <g id="Youtube" transform="translate(353.000000, 2.000000)">
                        <path d="M7.53825,9.58173013 L7.53765625,3.98907007 L12.6712187,6.79504154 L7.53825,9.58173013 Z M18.81,3.01994935 C18.81,3.01994935 18.6241563,1.64837606 18.05475,1.04438619 C17.3321563,0.251299596 16.5222813,0.247567423 16.1511875,0.2015373 C13.492375,0 9.50415625,0 9.50415625,0 L9.49584375,0 C9.49584375,0 5.507625,0 2.8488125,0.2015373 C2.477125,0.247567423 1.66784375,0.251299596 0.94465625,1.04438619 C0.37525,1.64837606 0.19,3.01994935 0.19,3.01994935 C0.19,3.01994935 0,4.63100369 0,6.241436 L0,7.75172169 C0,9.36277603 0.19,10.9732083 0.19,10.9732083 C0.19,10.9732083 0.37525,12.3447816 0.94465625,12.9487715 C1.66784375,13.7418581 2.61725,13.7169769 3.04,13.7997068 C4.56,13.9527258 9.5,14 9.5,14 C9.5,14 13.492375,13.9937797 16.1511875,13.7922424 C16.5222813,13.7455903 17.3321563,13.7418581 18.05475,12.9487715 C18.6241563,12.3447816 18.81,10.9732083 18.81,10.9732083 C18.81,10.9732083 19,9.36277603 19,7.75172169 L19,6.241436 C19,4.63100369 18.81,3.01994935 18.81,3.01994935 L18.81,3.01994935 Z"></path>
                    </g>
                </g>
            </g>
        </g>
    </g>
</svg>

<svg width="19" height="14" xmlns="http://www.w3.org/2000/svg"><path d="M7.538 9.582V3.989l5.133 2.806-5.133 2.787zM18.81 3.02s-.186-1.372-.755-1.976C17.332.251 16.522.248 16.15.202 13.492 0 9.504 0 9.504 0h-.008S5.508 0 2.849.202c-.372.046-1.181.05-1.904.842C.375 1.648.19 3.02.19 3.02S0 4.63 0 6.24v1.51c0 1.612.19 3.222.19 3.222s.185 1.372.755 1.976c.723.793 1.672.768 2.095.85C4.56 13.954 9.5 14 9.5 14s3.992-.006 6.651-.208c.371-.046 1.181-.05 1.904-.843.57-.604.755-1.976.755-1.976s.19-1.61.19-3.221v-1.51c0-1.611-.19-3.222-.19-3.222z" fill="#000" fill-rule="evenodd"/></svg>
